X: 20202
M: 6/8
L: 1/8
K: G
!p!D |\
(GD)G (GD)G | (GD)G G2A | (BG)B (BG)B | (BG)B B2e |\
ddd d2B | ddd d2B | ddd dcB | .A2 z .D2 :|
|: d |\
(GD)G BGB | (dB)d (gf)g | b2b a2a | g2z G2 |]


